app/images/icon_certified.svg

<svg width="63" height="63" viewBox="0 0 63 63" fill="none" xmlns="http://www.w3.org/2000/svg">
<g clip-path="url(#clip0)">
<path d="M49.2128 29.4318C49.2128 29.3198 49.2185 12.7959 49.2185 12.7959L24.6091 0.492188L-0.000230579 12.7969V29.0963C-0.00984362 39.3034 5.09179 48.8376 13.5892 54.4929L24.6091 61.8363L33.0984 56.1815C37.6867 62.0589 45.6127 64.1877 52.5283 61.4004C59.4444 58.6131 63.6789 51.5836 62.9099 44.1671C62.1404 36.7502 56.5533 30.7396 49.2128 29.4308V29.4318ZM24.6091 59.4739L14.6818 52.8568C6.7313 47.5663 1.95843 38.6459 1.96852 29.0963V14.0134L24.6091 2.69309L47.2498 14.0134V29.2054C46.9229 29.1857 46.599 29.1554 46.2654 29.1554C45.9318 29.1554 45.6069 29.1857 45.281 29.2054C45.281 29.1688 45.281 15.2275 45.281 15.2275L24.6091 4.89256L3.93727 15.2285V29.0963C3.93006 37.9869 8.37369 46.2906 15.7743 51.2168L24.6091 57.1034L31.0489 52.8126C31.3243 53.4134 31.6353 53.9974 31.9799 54.5612L24.6091 59.4739ZM30.3126 50.9385L24.6091 54.7381L16.8673 49.5792C16.4852 49.324 16.1151 49.0563 15.7498 48.7818V39.9835H13.781V47.1298C12.7005 46.1282 11.7123 45.0308 10.8279 43.8518V38.1316C10.8284 36.778 11.7488 35.598 13.0615 35.2683L19.7373 33.5947C19.9516 35.7293 21.5248 37.4779 23.6248 37.9162V41.9523H25.5935V37.9162C27.6935 37.4784 29.2662 35.7293 29.4801 33.5947L33.8622 34.6954C29.867 39.089 28.5144 45.2779 30.3126 50.9376V50.9385ZM19.6873 21.2804H22.4082C23.9276 21.2785 25.4282 20.942 26.8033 20.296H27.0701L29.531 23.5769V27.6788L26.2501 30.1398H22.9682L19.6873 27.6788V21.2804ZM17.8002 19.3116C17.9997 18.0773 18.7856 17.0165 19.9088 16.4667C22.0862 15.4977 24.5394 15.3434 26.8211 16.0317L27.0475 16.3585H28.5466C29.0903 16.3585 29.531 16.7993 29.531 17.3429V20.296L28.0545 18.3273H26.3457L26.1381 18.4306C24.9792 19.0079 23.7026 19.3097 22.4082 19.3116H17.8002ZM27.5623 31.6163V33.0929C27.5623 34.7237 26.24 36.046 24.6091 36.046C22.9783 36.046 21.656 34.7237 21.656 33.0929V31.6163L22.3126 32.1085H26.9057L27.5623 31.6163ZM29.531 31.5779V30.1398L31.4998 28.6632V17.3429C31.4998 15.7115 30.1775 14.3898 28.5466 14.3898H27.892C26.4678 13.5241 22.9221 13.3491 20.4107 14.1345C17.5945 14.8262 15.6493 17.3977 15.7498 20.296V21.2804H17.7185V28.6632L19.6873 30.1398V31.5731L12.5823 33.3596C10.3924 33.9061 8.85674 35.8749 8.85914 38.1316V40.7896C6.91923 37.1977 5.9041 33.1789 5.90602 29.0963V16.445L24.6091 7.09346L43.3123 16.445V29.0963C43.3123 29.2092 43.3055 29.3217 43.3046 29.4337C40.4336 29.947 37.7482 31.2049 35.5161 33.0818L29.531 31.5779ZM46.2654 60.6554C38.1107 60.6554 31.4998 54.0445 31.4998 45.8898C31.4998 37.7345 38.1107 31.1241 46.2654 31.1241C54.4201 31.1241 61.031 37.7345 61.031 45.8898C61.0219 54.0407 54.4163 60.6458 46.2654 60.6554Z" fill="#02133C"/>
<path d="M51.1873 17.3429H62.9998V19.3116H51.1873V17.3429Z" fill="#E30B0B"/>
<path d="M51.1873 21.2804H59.0623V23.2491H51.1873V21.2804Z" fill="#E30B0B"/>
<path d="M51.1873 25.2179H55.1248V27.1866H51.1873V25.2179Z" fill="#E30B0B"/>
<circle cx="45.9375" cy="45.9375" r="17.0625" fill="#C40B0B"/>
<path d="M43.8697 46.2242L40.2024 42.9053L36.75 46.0431L43.8697 52.5L55.125 39.8875L51.6726 36.75L43.8697 46.2242Z" fill="white"/>
</g>
<defs>
<clipPath id="clip0">
<rect width="63" height="63" fill="white"/>
</clipPath>
</defs>
</svg>

<svg width="63" height="63" fill="none" xmlns="http://www.w3.org/2000/svg"><g clip-path="url(#clip0)"><path d="M49.213 29.432l.005-16.636L24.61.492 0 12.797v16.3a30.473 30.473 0 0013.59 25.396l11.02 7.343 8.49-5.654A16.72 16.72 0 1049.212 29.43zM24.609 59.474l-9.927-6.617a28.504 28.504 0 01-12.713-23.76V14.012l22.64-11.32 22.64 11.32v15.192c-.326-.02-.65-.05-.984-.05-.333 0-.658.03-.984.05V15.228L24.609 4.892 3.937 15.228v13.868a26.547 26.547 0 0011.837 22.12l8.835 5.887 6.44-4.29c.275.6.586 1.184.93 1.748l-7.37 4.913zm5.704-8.535l-5.704 3.8-7.742-5.16a24.671 24.671 0 01-1.117-.797v-8.798h-1.97v7.146a24.588 24.588 0 01-2.953-3.278v-5.72c0-1.354.92-2.534 2.234-2.864l6.675-1.673a4.916 4.916 0 003.888 4.321v4.036h1.968v-4.036a4.914 4.914 0 003.887-4.321l4.382 1.1a16.649 16.649 0 00-3.55 16.243zM19.687 21.28h2.721c1.52-.002 3.02-.338 4.395-.984h.267l2.461 3.28v4.103l-3.28 2.46h-3.283l-3.28-2.46V21.28zM17.8 19.312a3.851 3.851 0 012.109-2.845 9.94 9.94 0 016.912-.435l.226.326h1.5c.543 0 .984.441.984.985v2.953l-1.476-1.969h-1.71l-.207.104a8.393 8.393 0 01-3.73.88H17.8zm9.762 12.304v1.477a2.953 2.953 0 01-5.906 0v-1.477l.657.492h4.593l.656-.492zm1.969-.038V30.14l1.969-1.477v-11.32a2.953 2.953 0 00-2.953-2.953h-.655c-1.424-.866-4.97-1.04-7.481-.256a6.126 6.126 0 00-4.661 6.162v.984h1.968v7.383l1.97 1.477v1.433l-7.106 1.787a4.913 4.913 0 00-3.723 4.772v2.658a24.583 24.583 0 01-2.953-11.694V16.445l18.703-9.352 18.703 9.352v12.651c0 .113-.006.226-.007.338a16.656 16.656 0 00-7.789 3.648l-5.985-1.504zm16.734 29.077c-8.154 0-14.765-6.61-14.765-14.765 0-8.156 6.61-14.766 14.765-14.766 8.155 0 14.766 6.61 14.766 14.766-.01 8.15-6.615 14.756-14.766 14.765z" fill="#02133C"/><path d="M51.187 17.343H63v1.969H51.187v-1.97zm0 3.937h7.875v1.97h-7.875v-1.97zm0 3.938h3.938v1.969h-3.938v-1.97z" fill="#E30B0B"/><circle cx="45.938" cy="45.938" r="17.063" fill="#C40B0B"/><path d="M43.87 46.224l-3.668-3.319-3.452 3.138 7.12 6.457 11.255-12.612-3.452-3.138-7.803 9.474z" fill="#fff"/></g><defs><clipPath id="clip0"><path fill="#fff" d="M0 0h63v63H0z"/></clipPath></defs></svg>
